papirus/48x48/apps/lighttable.svg

<?xml version="1.0" encoding="UTF-8" standalone="no"?>
<svg id="svg4417" xmlns:rdf="http://www.w3.org/1999/02/22-rdf-syntax-ns#" xmlns="http://www.w3.org/2000/svg" viewBox="0 0 48 48.000001" width="48" version="1.1" xmlns:cc="http://creativecommons.org/ns#" height="48" xmlns:dc="http://purl.org/dc/elements/1.1/">
 <metadata id="metadata4422">
  <rdf:RDF>
   <cc:Work rdf:about="">
    <dc:format>image/svg+xml</dc:format>
    <dc:type rdf:resource="http://purl.org/dc/dcmitype/StillImage"/>
    <dc:title/>
   </cc:Work>
  </rdf:RDF>
 </metadata>
 <g id="layer1" transform="translate(0 -1004.4)">
  <rect id="rect4203" transform="matrix(0,-1,-1,0,0,0)" rx="3" ry="3" height="40" width="40" y="-44" x="-1048.4" fill="#3465a4"/>
  <path id="rect4428" opacity=".2" d="m7 1008.4c-1.662 0-3 1.338-3 3v1c0-1.662 1.338-3 3-3h34c1.662 0 3 1.338 3 3v-1c0-1.662-1.338-3-3-3h-34z" fill="#fff"/>
  <path id="rect4388" opacity=".2" d="m4 1045.4v1c0 1.662 1.338 3 3 3h34c1.662 0 3-1.338 3-3v-1c0 1.662-1.338 3-3 3h-34c-1.662 0-3-1.338-3-3z"/>
  <g id="g4198" opacity=".2" transform="translate(0 1)">
   <path id="rect4200" opacity="1" d="m12 15v16 4h4 10v-4h-10v-16h-4zm10 0v4h10v16h4v-20h-14z" transform="translate(0 1003.4)"/>
  </g>
  <g id="g4192" fill="#fff">
   <rect id="rect4160" height="20" width="4" y="1018.4" x="12"/>
   <rect id="rect4162" transform="rotate(90)" height="14" width="4" y="-26" x="1034.4"/>
   <rect id="rect4170" transform="scale(-1)" height="20" width="4" y="-1038.4" x="-36"/>
   <rect id="rect4172" transform="rotate(-90)" height="14" width="4" y="22" x="-1022.4"/>
  </g>
 </g>
</svg>

<?xml version="1.0" encoding="UTF-8" standalone="no"?>
<!-- Created with Inkscape (http://www.inkscape.org/) -->

<svg
   xmlns:dc="http://purl.org/dc/elements/1.1/"
   xmlns:cc="http://creativecommons.org/ns#"
   xmlns:rdf="http://www.w3.org/1999/02/22-rdf-syntax-ns#"
   xmlns:svg="http://www.w3.org/2000/svg"
   xmlns="http://www.w3.org/2000/svg"
   xmlns:sodipodi="http://sodipodi.sourceforge.net/DTD/sodipodi-0.dtd"
   xmlns:inkscape="http://www.inkscape.org/namespaces/inkscape"
   width="48"
   height="48"
   viewBox="0 0 48 48.000001"
   id="svg4417"
   version="1.1"
   inkscape:version="0.91 r13725"
   sodipodi:docname="lighttable.svg">
  <defs
     id="defs4419" />
  <sodipodi:namedview
     id="base"
     pagecolor="#ffffff"
     bordercolor="#666666"
     borderopacity="1.0"
     inkscape:pageopacity="0.0"
     inkscape:pageshadow="2"
     inkscape:zoom="6.1198265"
     inkscape:cx="20.916172"
     inkscape:cy="22.590563"
     inkscape:document-units="px"
     inkscape:current-layer="layer1"
     showgrid="false"
     units="px"
     inkscape:window-width="1600"
     inkscape:window-height="849"
     inkscape:window-x="0"
     inkscape:window-y="0"
     inkscape:window-maximized="1" />
  <metadata
     id="metadata4422">
    <rdf:RDF>
      <cc:Work
         rdf:about="">
        <dc:format>image/svg+xml</dc:format>
        <dc:type
           rdf:resource="http://purl.org/dc/dcmitype/StillImage" />
        <dc:title />
      </cc:Work>
    </rdf:RDF>
  </metadata>
  <g
     inkscape:label="Layer 1"
     inkscape:groupmode="layer"
     id="layer1"
     transform="translate(0,-1004.3622)">
    <rect
       transform="matrix(0,-1,-1,0,0,0)"
       style="fill:#3465a4;fill-opacity:1;stroke:none"
       id="rect4203"
       width="40"
       height="40"
       x="-1048.3622"
       y="-44"
       rx="3"
       ry="3" />
    <path
       style="opacity:0.2;fill:#ffffff;fill-opacity:1;stroke:none"
       d="m 7,1008.3622 c -1.662,0 -3,1.338 -3,3 l 0,1 c 0,-1.662 1.338,-3 3,-3 l 34,0 c 1.662,0 3,1.338 3,3 l 0,-1 c 0,-1.662 -1.338,-3 -3,-3 l -34,0 z"
       id="rect4428"
       inkscape:connector-curvature="0" />
    <path
       style="opacity:0.3;fill:#000000;fill-opacity:1;stroke:none"
       d="m 4,1044.3622 0,1 c 0,1.662 1.338,3 3,3 l 34,0 c 1.662,0 3,-1.338 3,-3 l 0,-1 c 0,1.662 -1.338,3 -3,3 l -34,0 c -1.662,0 -3,-1.338 -3,-3 z"
       id="rect4388"
       inkscape:connector-curvature="0" />
    <g
       style="opacity:0.2;fill:#000000;fill-opacity:1"
       id="g4198"
       transform="translate(0,1.0000174)">
      <path
         style="opacity:1;fill:#000000;fill-opacity:1;stroke:none;stroke-width:1;stroke-linecap:round;stroke-linejoin:round;stroke-miterlimit:4;stroke-dasharray:none;stroke-opacity:1"
         d="M 12 15 L 12 31 L 12 35 L 16 35 L 26 35 L 26 31 L 16 31 L 16 15 L 12 15 z M 22 15 L 22 19 L 32 19 L 32 35 L 36 35 L 36 15 L 22 15 z "
         transform="translate(0,1003.3622)"
         id="rect4200" />
    </g>
    <g
       id="g4192"
       style="fill:#ffffff;fill-opacity:1">
      <rect
         y="1018.3621"
         x="12"
         height="20"
         width="4"
         id="rect4160"
         style="opacity:1;fill:#ffffff;fill-opacity:1;stroke:none;stroke-width:1;stroke-linecap:round;stroke-linejoin:round;stroke-miterlimit:4;stroke-dasharray:none;stroke-opacity:1" />
      <rect
         transform="matrix(0,1,-1,0,0,0)"
         style="opacity:1;fill:#ffffff;fill-opacity:1;stroke:none;stroke-width:1;stroke-linecap:round;stroke-linejoin:round;stroke-miterlimit:4;stroke-dasharray:none;stroke-opacity:1"
         id="rect4162"
         width="4"
         height="14"
         x="1034.3622"
         y="-26" />
      <rect
         transform="scale(-1,-1)"
         style="opacity:1;fill:#ffffff;fill-opacity:1;stroke:none;stroke-width:1;stroke-linecap:round;stroke-linejoin:round;stroke-miterlimit:4;stroke-dasharray:none;stroke-opacity:1"
         id="rect4170"
         width="4"
         height="20"
         x="-36"
         y="-1038.3622" />
      <rect
         y="22"
         x="-1022.3622"
         height="14"
         width="4"
         id="rect4172"
         style="opacity:1;fill:#ffffff;fill-opacity:1;stroke:none;stroke-width:1;stroke-linecap:round;stroke-linejoin:round;stroke-miterlimit:4;stroke-dasharray:none;stroke-opacity:1"
         transform="matrix(0,-1,1,0,0,0)" />
    </g>
  </g>
</svg>
